X:1
T:Lagrima
T:Francisco Tarrega
%%score ( 1 2 )
L:1/8
Q:1/4=80
M:3/4
K:E
V:1 treble-8 nm="Classical Guitar" snm="Guit."
V:2 treble-8 
V:1
 (gB aB bB | fB A B2 B) | (gB aB bB | fB A B2 B) | (e'2 d'2 c'2 | [Bb]g) (ce fa) | (ge cf z [=Ad] | %7
 [Ge]4) E,2 :|[K:G] ([Bg]c' be [A^df]g | e)[Ac] [GB][FA] [EG][FA] | [E,GB]e' Ac' Fa | %11
 [^df]B cB Bf | (gB aB bB | d'c' ba gf | e[GB] f[Ac] BA | [E,GBe]4) z2 ||[K:E] (gB aB bB | %17
 fB A B2 B) | (gB aB bB | fB A B2 B) | (e'2 d'2 c'2 | [Bb]g) (ce fa) | (ge cf z [=Ad] | %23
 [Ge]4) E,2 |] %24
V:2
 E2 F2 G2 | D4 B,2 | E2 F2 G2 | D4 B,2 | ce Be Af | x6 | B2 ^A2 B,2 | x6 :|[K:G] E,4 B,2 | E,6 | %10
 x6 | B,6 | E2 F2 G2 | A,6 | E,2 A,2 B,^D | x6 ||[K:E] E2 F2 G2 | D4 B,2 | E2 F2 G2 | D4 B,2 | %20
 ce Be Af | x6 | B2 ^A2 B,2 | x6 |] %24

